X:182
T:Joan's Placket
M:6/4
L:1/8
B:Thompson's Compleat Collection of 200 Favourite Country Dances, vol. 2 (London, 1765)
Z:Transcribed and edited by Flynn Titford-Mock, 2007
Z:abc's:AK/Fiddler's Companion
K:G
GA | B4B2 B3AG2 | A4A2 A4dc | B3AG2 A2G2F2 | G6 G4 || d2 | g4d2 e4d2 | g4d2 e4d2 |
g4d2 B3AG2 | A4A2 A4dc | B4B2 B3AG2 | A4A2 A4dc | B3AG2 A3GF2 | G6-G4 :|

